X: 1
T: Con's Slip Jig
T: Andrew Carr
N: Transposed from Emaj
M: 9/8
L: 1/8
D: Altan - Another Sky
R: slip jig
K: Dmaj
F2A AFd AFD|~G2 B2A Bcd|FAA A^GB ABc|dAF DEF E2D:|
d2B AFA AFA|Bee e2f gfe|d2B AFA ABc|dAF DEF E2D|
d2B AFA AFA|Bee e2f gfe|d2B A^GB ABc|dfa agf e2d||
